symbolic/64x64/apps/keurocalc.svg

<svg xmlns="http://www.w3.org/2000/svg" width="64" height="64" version="1"><path style="opacity:.2" d="M59.958 31.828A28 28 0 0 1 32 59 28 28 0 0 1 4.044 32.172 28 28 0 0 0 4 33a28 28 0 0 0 28 28 28 28 0 0 0 28-28 28 28 0 0 0-.042-1.172z"/><circle style="fill:#578cff" cx="32" cy="32" r="28"/><path style="opacity:.2;fill:#fff" d="M31.998 4A28 28 0 0 0 4 32a28 28 0 0 0 .018.492A28 28 0 0 1 31.998 5H32a28 28 0 0 1 27.973 27.488 28 28 0 0 0 .025-.488A28 28 0 0 0 32 4h-.002z"/><path style="opacity:.2" d="M34 17a16 16 0 0 0-14.824 10H16l-2 4h4.145A16 16 0 0 0 18 33l-2 4h2.531A16 16 0 0 0 34 49a16 16 0 0 0 12.488-6h-5.866A12 12 0 0 1 34 45a12 12 0 0 1-11.3-8H36l2-4H22a12 12 0 0 1 .18-2H38l2-4H23.622A12 12 0 0 1 34 21a12 12 0 0 1 6.618 2h5.854A16 16 0 0 0 34 17z"/><path style="fill:#ffff70" d="M34 16a16 16 0 0 0-14.824 10H16l-2 4h4.145A16 16 0 0 0 18 32l-2 4h2.531A16 16 0 0 0 34 48a16 16 0 0 0 12.488-6h-5.866A12 12 0 0 1 34 44a12 12 0 0 1-11.3-8H36l2-4H22a12 12 0 0 1 .18-2H38l2-4H23.622A12 12 0 0 1 34 20a12 12 0 0 1 6.618 2h5.854A16 16 0 0 0 34 16z"/></svg>

<svg xmlns="http://www.w3.org/2000/svg" width="64" height="64" version="1">
 <path style="opacity:0.2" d="M 59.958,31.828 A 28,28 0 0 1 32,59 28,28 0 0 1 4.044,32.172 28,28 0 0 0 4,33 28,28 0 0 0 32,61 28,28 0 0 0 60,33 28,28 0 0 0 59.958,31.828 Z"/>
 <circle style="fill:#578cff" cx="32" cy="32" r="28"/>
 <path style="opacity:0.2;fill:#ffffff" d="M 31.998047 4 A 28 28 0 0 0 4 32 A 28 28 0 0 0 4.0175781 32.492188 A 28 28 0 0 1 31.998047 5 L 32 5 A 28 28 0 0 1 59.972656 32.488281 A 28 28 0 0 0 59.998047 32 A 28 28 0 0 0 32 4 L 31.998047 4 z"/>
 <path style="opacity:0.2" d="M 34,17 A 16,16 0 0 0 19.1758,27 L 16,27 l -2,4 4.1446,0 A 16,16 0 0 0 18,33 l -2,4 2.5312,0 A 16,16 0 0 0 34,49 16,16 0 0 0 46.488,43 l -5.866,0 A 12,12 0 0 1 34,45 12,12 0 0 1 22.7,37 l 13.3,0 2,-4 -16,0 a 12,12 0 0 1 0.18,-2 L 38,31 40,27 23.622,27 A 12,12 0 0 1 34,21 a 12,12 0 0 1 6.618,2 l 5.854,0 A 16,16 0 0 0 34,17 Z"/>
 <path style="fill:#ffff70" d="M 34,16 A 16,16 0 0 0 19.1758,26 L 16,26 l -2,4 4.1446,0 A 16,16 0 0 0 18,32 l -2,4 2.5312,0 A 16,16 0 0 0 34,48 16,16 0 0 0 46.488,42 l -5.866,0 A 12,12 0 0 1 34,44 12,12 0 0 1 22.7,36 l 13.3,0 2,-4 -16,0 a 12,12 0 0 1 0.18,-2 L 38,30 40,26 23.622,26 A 12,12 0 0 1 34,20 a 12,12 0 0 1 6.618,2 l 5.854,0 A 16,16 0 0 0 34,16 Z"/>
</svg>
